svgs/shazam.svg

<svg width="192" height="192" viewBox="0 0 192 192" fill="none" xmlns="http://www.w3.org/2000/svg">
<path fill-rule="evenodd" clip-rule="evenodd" d="M41.1629 50.5771C22.0273 69.7128 22.0273 100.738 41.1629 119.874C60.2986 139.009 91.3237 139.009 110.459 119.874L119.652 110.681C121.995 108.338 121.995 104.539 119.652 102.196C117.309 99.8528 113.51 99.8528 111.167 102.196L101.974 111.388C87.5247 125.838 64.0976 125.838 49.6482 111.388C35.1988 96.9389 35.1988 73.5118 49.6482 59.0624L81.468 27.2426C83.8112 24.8994 83.8112 21.1004 81.468 18.7573C79.1249 16.4142 75.3259 16.4142 72.9828 18.7573L41.1629 50.5771ZM150.057 141.087C169.193 121.951 169.193 90.9259 150.057 71.7902C130.922 52.6545 99.8966 52.6545 80.7609 71.7902L71.5685 80.9826C69.2254 83.3258 69.2254 87.1248 71.5685 89.4679C73.9117 91.8111 77.7107 91.8111 80.0538 89.4679L89.2462 80.2755C103.696 65.8261 127.123 65.8261 141.572 80.2755C156.021 94.7249 156.021 118.152 141.572 132.601L109.752 164.421C107.409 166.764 107.409 170.563 109.752 172.907C112.095 175.25 115.894 175.25 118.238 172.907L150.057 141.087Z" fill="black"/>
</svg>

<svg width="192" height="192" viewBox="0 0 192 192" fill="none" xmlns="http://www.w3.org/2000/svg"><path fill-rule="evenodd" clip-rule="evenodd" d="M41.163 50.577c-19.136 19.136-19.136 50.161 0 69.297 19.136 19.135 50.16 19.135 69.296 0l9.193-9.193a6 6 0 0 0-8.485-8.485l-9.193 9.192c-14.45 14.45-37.876 14.45-52.326 0-14.45-14.45-14.45-37.876 0-52.326l31.82-31.82a6 6 0 1 0-8.485-8.485l-31.82 31.82Zm108.894 90.51c19.136-19.136 19.136-50.161 0-69.297-19.135-19.136-50.16-19.136-69.296 0l-9.192 9.193a6 6 0 0 0 8.485 8.485l9.192-9.193c14.45-14.449 37.877-14.449 52.326 0 14.449 14.45 14.449 37.877 0 52.326l-31.82 31.82a6.001 6.001 0 0 0 8.486 8.486l31.819-31.82Z" fill="#000"/></svg>
